img/quotes.svg

<svg width="47" height="39" viewBox="0 0 47 39" fill="none" xmlns="http://www.w3.org/2000/svg">
<path d="M10.25 39C7.25 39 4.79167 38.0417 2.875 36.125C0.958333 34.2083 0 31.75 0 28.75C0 27.75 0.0416666 26.8333 0.125 26C0.291667 25.0833 0.583333 24 1 22.75C1.41667 21.5 2 19.9167 2.75 18L9.375 0.25H19.375L12.125 28L10.125 18.625C13.0417 18.625 15.4583 19.5417 17.375 21.375C19.2917 23.2083 20.25 25.6667 20.25 28.75C20.25 31.8333 19.2917 34.3333 17.375 36.25C15.4583 38.0833 13.0833 39 10.25 39ZM36.75 39C33.75 39 31.2917 38.0417 29.375 36.125C27.4583 34.2083 26.5 31.75 26.5 28.75C26.5 27.75 26.5417 26.8333 26.625 26C26.7917 25.0833 27.0833 24 27.5 22.75C27.9167 21.5 28.5 19.9167 29.25 18L35.875 0.25H45.875L38.625 28L36.625 18.625C39.5417 18.625 41.9583 19.5417 43.875 21.375C45.7917 23.2083 46.75 25.6667 46.75 28.75C46.75 31.8333 45.7917 34.3333 43.875 36.25C41.9583 38.0833 39.5833 39 36.75 39Z" fill="white"/>
</svg>

<svg width="47" height="39" fill="none" xmlns="http://www.w3.org/2000/svg"><path d="M10.25 39c-3 0-5.458-.958-7.375-2.875C.958 34.208 0 31.75 0 28.75c0-1 .042-1.917.125-2.75.167-.917.458-2 .875-3.25S2 19.917 2.75 18L9.375.25h10L12.125 28l-2-9.375c2.917 0 5.333.917 7.25 2.75 1.917 1.833 2.875 4.292 2.875 7.375s-.958 5.583-2.875 7.5C15.458 38.083 13.083 39 10.25 39Zm26.5 0c-3 0-5.458-.958-7.375-2.875-1.917-1.917-2.875-4.375-2.875-7.375 0-1 .042-1.917.125-2.75.167-.917.458-2 .875-3.25s1-2.833 1.75-4.75L35.875.25h10L38.625 28l-2-9.375c2.917 0 5.333.917 7.25 2.75 1.917 1.833 2.875 4.292 2.875 7.375s-.958 5.583-2.875 7.5C41.958 38.083 39.583 39 36.75 39Z" fill="#fff"/></svg>
